X: 2
T: John Joe Gannon's
R: hornpipe
M: 4/4
L: 1/8
K: Gmaj
|:(3DEF|G2- G>F G>B d2|c>BA>G F2 (3GAB|d>gf>e (3d^cd (3=cBA|d>^c (3fed =c>A (3FED|
G>DG>F G>B (3dcB|c>BA>G F>GA>B|d2 (3gfe d>D (3DEF|A>GG>F G2:|
|:(3ABc|(3ded B>d g>dB>G|(3ABA E>G (3ABA (3GFE|D>d (3Bcd c>DE>F|G>B (3AGF G>D[B,B]>D|
G>DE>F G2 d>B|c>BA>G F2 (3GAB|d>gf>e d>DE>F|(3ABA G>F G2:|

